!!!!SEGMENT: pl-wtm--r-2139--002_wysocki-kasper-napoleon--la-legerte-n-2.krn
!!!cenid: 18xx:4369
!!!COM: Wysocki, Kasper Napoleon
!!!COM-rismID: pe41024789
!!!CDT: 1810/12/06-1850/09/21
!!!CNT: Polish
!!!GTL: La Légèrté
!!!OTL: N. 2.
!!!OMV: 002
!!!PDT:
!!!AGN:
!!!SMS-siglum: PL-Wtm
!!!SMS-shelfmark: R 2139
!!!SMS-shelfwork: 001-002 G
!!!SMS-variant:
!!!SMS-altvar:
!!!NIFC-rismSourceID: 1001139896
!!!NIFC-rismChildID: 1001139899
!!!NIFC-islandoraID: pl-wtm:29947
!!!URL-pdf-islandora: https://repozytorium.nifc.pl/islandora/object/pl-wtm:29947/datastream/PDF/view
!!!URL-scan: https://polish.musicsources.pl/pl/lokalizacje/galeria/rekopisy/6569/2 @EN{Scan on Polish Music Sources Website} @PL{Skany w portalu Dziedzictwo Muzyki Polskiej w otwartym dostępie}
!!!ONB-nifc: UWAGA: skan 2
!!!AIN: 2 piano
!!!key: G
!!!OMD: N. 2. Con grazio
**kern	**kern	**dynam
*part2	*part1	*part1
*staff2	*staff1	*
*>[A,A,B,B]	*>[A,A,B,B]	*>[A,A,B,B]
*>A	*>A	*>A
*I"fortepian	*I"fortepian	*
*Ipiano	*Ipiano	*
*ICklav	*ICklav	*
*clefF4	*clefG2	*
*k[f#]	*k[f#]	*
*G:	*G:	*
*M3/4	*M3/4	*
*	*8va	*
=	=	=
!	!	!LO:DY:t=p.
4r	8ddd\L	p
.	8ddd\J	.
=1	=1	=1
4GG/	8ddd\L	.
.	8ddd\	.
4B 4G\	8eee\	.
.	8ddd\	.
4D\	8ggg\	.
.	8bbb\J	.
=2	=2	=2
4DD/	(8fff#\L	.
.	8aaa\J)	.
4c 4A 4F#\	4cccc\	.
4D\	8ddd\L	.
.	8ddd\J	.
=3	=3	=3
4DD/	8ddd\L	.
.	8ddd\	.
4c 4A 4F#\	8eee\	.
.	8ddd\	.
4D\	8fff#\	.
.	8aaa\J	.
=4	=4	=4
4GG/	8ggg\L	.
.	8bbb\J	.
4B 4G\	4dddd\	.
4D\	8ddd\L	.
.	8ddd\J	.
!!LO:PB:g=original
=5	=5	=5
4GG/	8ddd\L	.
.	8ddd\	.
4B 4G\	8eee\	.
.	8ddd\	.
4D\	8ggg\	.
.	8bbb\J	.
=6	=6	=6
*^	*	*
*	*2\right	*	*
4r	2.C\	8bbb\L	.
.	.	8aaa\	.
4c 4A 4E/	.	8aaa\	.
.	.	8aaa\	.
4c 4A 4E/	.	8cccc\	.
.	.	8eeee\J	.
=7	=7	=7	=7
!	!LO:N:vis=2	!	!
4r	2.D\	8dddd\L	.
.	.	8bbb\	.
4B 4G/	.	8ggg\	.
.	.	8ggg\	.
4c 4A 4D/	.	8bbb 8fff#\	.
.	.	8aaa\J	.
*v	*v	*	*
=8	=8	=8
4B 4G\	4ggg\	.
4GG/	4r	.
=:|!|:	=:|!|:	=:|!|:
*>B	*>B	*>B
4r	8bb\L	.
.	8bb\J	.
=9	=9	=9
*^	*	*
!	!	!	!LO:DY:t=p.
4r	2.BB\	8bb\L	p
.	.	8bb\	.
4B 4A 4D#X/	.	8ccc\	.
.	.	8bb\	.
4B 4A 4D#/	.	8ddd#X\	.
.	.	8fff#\J	.
!!LO:LB:g=original
=10	=10	=10	=10
!	!LO:N:vis=2	!	!
4r	2.E\	8eee\L	.
.	.	8fff#\J	.
4B 4G/	.	4ggg\	.
4B 4G/	.	8aa/L	.
.	.	8aa/J	.
=11	=11	=11	=11
4r	2.AA\	8aa\L	.
.	.	8aa\	.
4A 4G 4C#X/	.	8bb\	.
.	.	8aa\	.
4A 4G 4C#/	.	8ccc#X\	.
.	.	8eee\J	.
=12	=12	=12	=12
4r	2.D\	8ddd\L	.
.	.	8eee\J	.
4A 4F#/	.	4fff#\	.
4A 4F#/	.	8aa/L	.
*ped	*	*	*
.	.	8aa/J	.
=13	=13	=13	=13
4r	2.D\	8aa\L	.
.	.	8aa\	.
4c 4A 4F#/	.	8bb\	.
.	.	8aa\	.
4c 4A 4F#/	.	8bb\	.
.	.	8ccc\J	.
*v	*v	*	*
=14	=14	=14
4GG/	8eee\L	.
.	8ddd\	.
4B 4G\	8dddd\	.
.	8bbb\	.
4D\	8ggg\	.
.	8ddd\J	.
!!LO:LB:g=original
=15	=15	=15
4DD/	8fff#\L	.
.	8eee\	.
4c 4A 4F#\	8ddd\	.
.	8ccc\	.
4D\	8bb\	.
.	8aa\J	.
=16	=16	=16
4B 4G\	4gg/	.
4GG/	4r	.
*	*X8va	*
=:|!	=:|!	=:|!
*-	*-	*-
!!!system-decoration: {(*)}
!!!ENC: Filip Voros
!!!END: 2023-07-12
!!!ENC: Marta Lawrence
!!!END: 2023-07-21
!!!YEC: Copyright 2022 Narodowy Instytut Fryderyka Chopina (https://polishscores.org)
!!!YEM: License CC-BY-4.0 (https://creativecommons.org/licenses/by/4.0)
